kora-light/actions/scalable/exchange-positions-clockwise.svg

<svg xmlns="http://www.w3.org/2000/svg" width="16" height="16" viewBox="0 0 16 16">
 <defs>
  <style id="current-color-scheme" type="text/css">
   .ColorScheme-Text { color:#444444; } .ColorScheme-Highlight { color:#4285f4; }
  </style>
 </defs>
 <path style="fill:currentColor" class="ColorScheme-Text" d="M 0 0 L 0 7 L 8 7 L 8 0 L 0 0 z M 9 1.078125 L 9 5 L 10 5 L 10 2.3554688 C 12.393 3.2015187 13.9948 5.4619 14 8 L 15 8 C 14.997 4.5227 12.4416 1.574925 9 1.078125 z M 1 8 C 1.003 11.4773 3.5584 14.425075 7 14.921875 L 7 11 L 6 11 L 6 13.644531 C 3.607 12.798481 2.0052 10.5381 2 8 L 1 8 z M 12.5 9 A 3.5 3.5 0 0 0 9 12.5 A 3.5 3.5 0 0 0 9.6992188 14.59375 L 10.416016 13.876953 A 2.5 2.5 0 0 1 9.9960938 12.507812 A 2.5 2.5 0 0 1 12.496094 10.007812 A 2.5 2.5 0 0 1 13.873047 10.423828 L 14.589844 9.7070312 A 3.5 3.5 0 0 0 12.490234 9.0058594 L 12.5 9 z M 15.304688 10.398438 L 15.300781 10.40625 L 14.583984 11.123047 A 2.5 2.5 0 0 1 15.003906 12.492188 A 2.5 2.5 0 0 1 12.503906 14.992188 A 2.5 2.5 0 0 1 11.126953 14.576172 L 10.410156 15.292969 A 3.5 3.5 0 0 0 12.503906 15.992188 A 3.5 3.5 0 0 0 16.003906 12.492188 A 3.5 3.5 0 0 0 15.304688 10.398438 z"/>
</svg>

<svg xmlns="http://www.w3.org/2000/svg" style="fill-rule:evenodd;clip-rule:evenodd;stroke-linejoin:round;stroke-miterlimit:2" width="100%" height="100%" version="1.1" viewBox="0 0 16 16" xml:space="preserve">
 <defs>
  <style id="current-color-scheme" type="text/css">
   .ColorScheme-Text { color:#444444; } .ColorScheme-Highlight { color:#4285f4; } .ColorScheme-NeutralText { color:#ff9800; } .ColorScheme-PositiveText { color:#4caf50; } .ColorScheme-NegativeText { color:#f44336; }
  </style>
 </defs>
 <path style="fill:currentColor;" class="ColorScheme-Text" d="M1.738,-0c-0.265,0 -0.52,0.105 -0.707,0.293c-0.188,0.187 -0.293,0.442 -0.293,0.707c-0,1.331 -0,3.669 -0,5c-0,0.265 0.105,0.52 0.293,0.707c0.187,0.188 0.442,0.293 0.707,0.293c1.537,-0 3.725,0 5.262,0c0.265,-0 0.52,-0.105 0.707,-0.293c0.188,-0.187 0.293,-0.442 0.293,-0.707c0,-1.331 0,-3.669 0,-5c0,-0.265 -0.105,-0.52 -0.293,-0.707c-0.187,-0.188 -0.442,-0.293 -0.707,-0.293c-1.537,-0 -3.725,-0 -5.262,-0Zm7.262,1.078l0,3.922l1,0l0,-2.645c2.393,0.847 3.995,3.107 4,5.645l1,0c-0.003,-3.477 -2.558,-6.425 -6,-6.922Zm-8,6.922c0.003,3.477 2.558,6.425 6,6.922l0,-3.922l-1,0l0,2.645c-2.393,-0.847 -3.995,-3.107 -4,-5.645l-1,0Zm11.5,1c-1.92,0 -3.5,1.58 -3.5,3.5c0.001,0.755 0.246,1.49 0.699,2.094l0.717,-0.717c-0.27,-0.406 -0.416,-0.882 -0.42,-1.369c0,-1.372 1.129,-2.5 2.5,-2.5c0.49,0.001 0.969,0.145 1.377,0.416l0.717,-0.717c-0.606,-0.455 -1.343,-0.701 -2.1,-0.701l0.01,-0.006Zm2.805,1.398l-0.004,0.008l-0.717,0.717c0.27,0.406 0.416,0.882 0.42,1.369c-0,1.372 -1.129,2.5 -2.5,2.5c-0.49,-0.001 -0.969,-0.145 -1.377,-0.416l-0.717,0.717c0.604,0.453 1.339,0.698 2.094,0.699c1.92,0 3.5,-1.58 3.5,-3.5c-0.001,-0.755 -0.247,-1.489 -0.699,-2.094Z"/>
</svg>
